X:16
T:Blockstugevalsen
R:waltz
C:Henrik Norbeck
H:July 1998
M:3/4
L:1/8
Q:1/4=170
K:G
d2 de dB|d^c AB G2|BA GB A=F|GB A=F D2|
d2 de dB|d^c AB G2|BA GB A=F|G2 G4:|
|:d2 de dB|=cd eg ^f2|d2 de dB|d^c AB G2|
d2 de dB|=cd =fe dB|d2 de dB|d2 =c4:|
~g3^f d2|~g3^f d2|ga g^f dB|d^c AB G2|
~g3^f d2|ga g^f d2|ga ba g^f|d^c AB G2||

